X: 1
T: Willie Coleman's jig
C: by Willie Coleman
R: jig
B: The Portland Collection v.2 p.225
S: Fiddle Hell handout 2021-4-14
Z: 2021 John Chambers <jc:trillian.mit.edu>
N: A few of the chords disagree with the melody.
M: 6/8
L: 1/8
K: G
|:\
"G"~B3 AGE | GED GBd | edB dgb | "C"age "D7"dBA |
"G"~B3 AGE | GED GBd | "C"edB dgA | "D7"BGF "G"G3 :|
|:\
"G"g2g edB | dgb age | g2g "Em"edB | "Am"GBd "D7"e2d |
"G"g2g edB | dgb age | "C"d2d gdB | "D"AGF "G"G3 :|
